ids-wordpress/site-IdS/assets/images/projetos/icones-ferramentasetec/PHP.svg

<svg width="36" height="36" viewBox="0 0 36 36" fill="none" xmlns="http://www.w3.org/2000/svg">
<g clip-path="url(#clip0_694_1617)">
<path d="M16.0238 0.169706C34.3027 -1.32584 42.7178 21.3268 28.2596 31.7892C15.3921 41.1012 -2.18525 30.0539 0.49506 14.4249C1.78765 6.88506 8.36854 0.795069 16.0238 0.169706ZM16.6581 1.30881C4.90558 2.15108 -2.21569 14.7027 3.30729 25.2261C9.21335 36.4788 25.3294 36.9329 31.9484 26.1001C38.9504 14.6393 29.9163 0.35871 16.6581 1.30881Z" fill="#F75705"/>
<path d="M16.9369 15.7183H19.4726V12.4862C19.4726 12.3518 20.0827 11.6998 20.2438 11.6097C21.114 11.1213 22.1998 11.5869 22.489 12.5129C22.3152 15.5446 22.8099 19.0177 22.522 21.9961C22.3989 23.2684 21.1165 23.9153 20.0637 23.1745C19.8924 23.054 19.4738 22.5098 19.4738 22.3703V18.7589H16.9381V22.4971C16.9381 22.5605 16.6489 22.9297 16.5639 23.0096C15.4908 24.0155 14.0257 23.2671 13.89 21.8692C13.6071 18.9542 14.065 15.5116 13.9559 12.5446C14.3276 11.5044 15.5022 11.0846 16.4269 11.7302C16.555 11.819 16.9394 12.2541 16.9394 12.3594V15.7171L16.9369 15.7183ZM15.9233 16.161C15.7889 15.2515 15.9233 13.7306 15.9233 12.7399C15.9233 12.4304 15.0354 12.4304 15.0354 12.7399V22.3081C15.0354 22.3588 15.7457 22.5986 15.8967 22.0925C16.1238 21.3326 15.6227 18.1754 16.1745 17.8088C16.6235 17.5094 20.0129 17.4067 20.4861 18.0638V22.1191C20.4861 22.2117 20.8882 22.5085 21.0493 22.4426C21.1812 22.4502 21.4996 22.1825 21.4996 22.1191V12.7412C21.4996 12.5776 20.8907 12.3251 20.6434 12.5826C20.292 12.948 20.5812 15.471 20.4911 16.1686C20.4645 16.3716 20.4417 16.5682 20.2324 16.6697C19.9774 16.794 16.9546 16.7801 16.5005 16.7204C16.1453 16.6735 15.9766 16.5314 15.9221 16.1623L15.9233 16.161Z" fill="#F75705"/>
<path d="M8.69802 19.775C8.58766 20.8482 9.057 22.2892 8.12847 23.0706C7.26844 23.7949 5.98219 23.4283 5.6841 22.3437L5.66254 12.6221C5.72723 12.2136 6.23082 11.6555 6.63293 11.5642C7.18725 11.4386 9.52127 11.4677 10.1568 11.5362C13.7618 11.9282 14.8755 16.8905 11.9859 18.9429C10.9965 19.6457 9.86502 19.6685 8.69929 19.7763L8.69802 19.775ZM7.52467 22.274C7.85194 21.8896 7.59571 19.945 7.67689 19.3222C7.81262 18.2732 9.12169 18.707 9.90054 18.6309C13.4295 18.2833 13.4409 12.9214 9.77369 12.551C9.35002 12.5079 7.17457 12.4889 6.92214 12.6119C6.81559 12.6639 6.72806 12.7781 6.69508 12.891L6.67352 21.986C6.70269 22.4211 7.27859 22.5632 7.52594 22.2727L7.52467 22.274Z" fill="#F75705"/>
<path d="M26.4454 19.6468C26.3211 20.6248 26.7828 22.3424 26.0027 23.0705C25.1553 23.8633 23.8184 23.3736 23.4277 22.3436L23.4086 12.6194C23.4835 12.1514 23.9579 11.696 24.4069 11.5894C25.0221 11.4436 26.9655 11.4702 27.6466 11.5362C32.3832 11.9941 32.6292 18.6003 28.3519 19.5885C27.8293 19.709 26.9337 19.8308 26.4454 19.6456V19.6468ZM24.4158 12.8668V22.1178C24.4158 22.2104 24.8179 22.5073 24.979 22.4413C25.1109 22.4489 25.4293 22.1813 25.4293 22.1178V19.076C25.4293 18.4773 27.4767 18.6676 27.8876 18.6181C31.1819 18.2287 31.1997 12.9163 27.5198 12.5509C27.0834 12.5078 24.946 12.4862 24.6708 12.6156C24.6124 12.6435 24.4272 12.8249 24.4158 12.8668Z" fill="#F75705"/>
<path d="M7.68326 13.7534C7.85197 13.1484 10.1555 13.4287 10.6946 13.7839C11.7297 14.4638 11.7817 16.4185 10.9141 17.2367C10.791 17.3534 10.1416 17.7454 10.0287 17.7454H7.87353L7.68326 17.5551V13.7534ZM8.69678 16.7318C11.1779 17.1961 11.0206 14.0503 8.69678 14.4511V16.7318Z" fill="#F75705"/>
<path d="M25.4306 13.8803C25.4446 13.8016 25.5499 13.6824 25.5917 13.5961C27.5997 12.8909 29.9807 13.9564 29.198 16.3792C29.0559 16.8194 28.357 17.7454 27.9029 17.7454H25.6209L25.4306 17.5551C25.5702 16.4604 25.2429 14.9128 25.4306 13.8803ZM26.4441 16.7318C28.8847 17.2113 28.8466 13.9792 26.4441 14.4511V16.7318Z" fill="#F75705"/>
</g>
<defs>
<clipPath id="clip0_694_1617">
<rect width="35.3717" height="35.104" fill="white" transform="translate(0.220764 0.0982666)"/>
</clipPath>
</defs>
</svg>

<svg xmlns="http://www.w3.org/2000/svg" width="36" height="36" fill="none"><g fill="#F75705" clip-path="url(#a)"><path d="M16.024.17C34.303-1.326 42.718 21.327 28.26 31.79 15.392 41.1-2.185 30.053.495 14.424 1.788 6.885 8.37.795 16.024.17Zm.634 1.139C4.906 2.15-2.216 14.703 3.308 25.226c5.905 11.253 22.021 11.707 28.64.874C38.95 14.64 29.916.36 16.658 1.31Z"/><path d="M16.937 15.718h2.536v-3.232c0-.134.61-.786.77-.876.871-.489 1.957-.023 2.246.903-.174 3.032.32 6.505.033 9.483-.123 1.272-1.405 1.92-2.458 1.178-.172-.12-.59-.664-.59-.804V18.76h-2.536v3.738c0 .064-.29.433-.374.513-1.073 1.005-2.538.257-2.674-1.14-.283-2.916.175-6.358.066-9.325.372-1.04 1.546-1.46 2.47-.815.129.089.513.524.513.63v3.357l-.002.001Zm-1.014.443c-.134-.91 0-2.43 0-3.421 0-.31-.888-.31-.888 0v9.568c0 .05.71.29.862-.215.227-.76-.274-3.918.277-4.284.45-.3 3.839-.402 4.312.255v4.055c0 .093.402.39.563.324.132.007.45-.26.45-.324v-9.378c0-.163-.608-.416-.856-.158-.351.365-.062 2.888-.152 3.586-.026.203-.05.4-.259.5-.255.125-3.277.111-3.732.051-.355-.046-.523-.189-.578-.558l.001-.001Z"/><path d="M8.698 19.775c-.11 1.073.359 2.514-.57 3.296-.86.724-2.146.357-2.444-.727l-.021-9.722c.064-.408.568-.966.97-1.058.554-.125 2.888-.096 3.524-.028 3.605.392 4.719 5.354 1.829 7.407-.99.703-2.121.726-3.287.833l-.001-.001Zm-1.173 2.499c.327-.384.07-2.329.152-2.952.136-1.049 1.445-.615 2.224-.691 3.529-.348 3.54-5.71-.127-6.08-.424-.043-2.6-.062-2.852.06a.47.47 0 0 0-.227.28l-.021 9.095c.029.435.605.577.852.287l-.001.001ZM26.445 19.647c-.124.978.338 2.695-.442 3.424-.848.792-2.185.303-2.575-.727l-.02-9.725c.075-.468.55-.923.999-1.03.615-.145 2.558-.119 3.24-.053 4.736.458 4.982 7.064.705 8.053-.523.12-1.418.242-1.907.057Zm-2.03-6.78v9.25c0 .093.403.39.564.324.132.008.45-.26.45-.323v-3.042c0-.599 2.048-.408 2.459-.458 3.294-.39 3.312-5.702-.368-6.067-.437-.043-2.574-.065-2.85.065-.058.027-.243.209-.254.25Z"/><path d="M7.683 13.753c.169-.605 2.473-.324 3.012.03 1.035.68 1.087 2.636.22 3.454-.124.116-.773.508-.886.508H7.874l-.19-.19v-3.802Zm1.014 2.979c2.48.464 2.324-2.682 0-2.28v2.28ZM25.43 13.88c.015-.078.12-.198.162-.284 2.008-.705 4.389.36 3.606 2.783-.142.44-.841 1.366-1.295 1.366H25.62l-.19-.19c.14-1.095-.188-2.642 0-3.675Zm1.014 2.852c2.44.48 2.403-2.753 0-2.28v2.28Z"/></g><defs><clipPath id="a"><path fill="#fff" d="M.22.098h35.373v35.104H.22z"/></clipPath></defs></svg>
